X: 3928
T: Blackbird, The
R: hornpipe
M: 4/4
K: Dmixolydian
|:dc|B2BG A2(3AB^c|dcAF G2FG|AFDE FAGF|DEFG Aedc|
B2BG A2(3AB^c|dcAF G2FG|AFDE FAGF|D2D^C D2:|
|:FG|Add^c d2(3efg|fded cAGB|Add^c dfag|f2d2 d2(3gfe|
dcAF G2(3AB^c|d2AG F2DE|FGAF GBAG|F2D2 D2:|

